P2
61 63
255
0 0 0 0 0 0 0 0 0 0 0 0 0 0 0 0 0 0 0 0 0 0 0 0 0 0 0 0 0 0 0 0 0 0 0 0 0 0 0 0 0 0 0 0 0 0 0 0 0 0 0 0 0 0 0 0 0 0 0 0 0
0 0 0 0 0 0 0 0 0 0 0 0 0 0 0 0 0 0 0 0 0 0 0 0 0 0 0 0 0 0 0 0 0 0 0 0 0 0 0 0 0 0 0 0 0 0 0 0 0 0 0 0 0 0 0 0 0 0 0 0 0
0 0 0 7 7 7 7 7 7 7 7 7 7 7 7 7 7 7 7 7 7 7 7 7 7 7 7 7 7 7 7 7 7 7 7 7 7 7 7 7 7 7 7 7 7 7 7 7 7 7 7 7 7 7 7 7 7 7 0 0 0
0 0 7 8 28 36 7 7 7 7 7 7 58 58 58 58 58 58 58 58 58 58 58 58 58 58 58 58 58 58 58 58 58 58 58 58 58 58 58 58 58 58 58 58 58 58 58 58 58 58 58 58 58 7 7 10 1 1 7 0 0
0 0 7 8 28 36 7 7 7 7 7 7 58 58 58 58 58 58 58 58 58 58 58 58 58 58 58 58 58 58 58 58 58 58 58 58 58 58 58 58 58 58 58 58 58 58 58 58 58 58 58 58 58 7 7 10 1 1 7 0 0
0 0 7 8 28 36 7 7 7 7 7 7 58 58 58 58 58 58 58 58 58 58 58 58 58 58 58 58 58 58 58 58 58 58 58 58 58 58 58 58 58 58 58 58 58 58 58 58 58 58 58 58 58 7 7 10 1 1 7 0 0
0 0 7 7 28 7 7 7 7 7 7 7 58 58 58 58 58 58 58 58 58 58 58 58 58 58 58 58 58 58 58 58 58 58 58 58 58 58 58 58 58 58 58 58 58 58 58 58 58 58 58 58 58 7 7 7 1 7 7 8 0
0 136 7 7 7 7 7 7 7 7 7 7 58 58 58 58 58 58 58 58 58 58 58 58 58 58 58 58 58 58 58 58 58 58 58 58 58 58 58 58 58 58 58 58 58 58 58 58 58 58 58 58 58 7 7 7 7 7 7 8 0
0 136 7 7 7 7 7 7 7 7 7 7 58 58 58 58 58 58 58 58 58 58 58 58 58 58 58 58 58 58 58 58 58 58 58 58 58 58 58 58 58 58 58 58 58 58 58 58 58 58 58 58 58 7 7 7 7 7 7 8 0
0 136 7 7 7 7 7 7 7 7 7 7 58 58 58 58 58 58 58 58 58 58 58 58 58 58 58 58 58 58 58 58 58 58 58 58 58 58 58 58 58 58 58 58 58 58 58 58 58 58 58 58 58 7 7 7 7 7 7 8 0
0 136 7 7 7 7 7 7 7 7 7 7 58 58 58 58 58 58 58 58 58 58 58 58 58 58 58 58 58 58 58 58 58 58 58 58 58 58 58 58 58 58 58 58 58 58 58 58 58 58 58 58 58 7 7 7 7 7 7 8 0
0 0 7 7 7 7 7 7 7 7 7 7 58 58 58 58 58 58 58 58 58 58 58 58 58 58 58 58 58 58 58 58 58 58 58 58 58 58 58 58 58 58 58 58 58 58 58 58 58 58 58 58 58 7 7 7 7 7 7 8 0
0 136 7 7 7 7 7 7 7 7 7 7 58 58 58 58 58 58 58 58 58 58 58 58 58 58 58 58 58 58 58 58 58 58 58 58 58 58 58 58 58 58 58 58 58 58 58 58 58 58 58 58 58 7 7 7 7 7 7 8 0
0 136 7 7 7 7 7 7 7 7 7 7 58 58 58 58 58 58 58 58 58 58 58 58 58 58 58 58 58 58 58 58 58 58 58 58 58 58 58 58 58 58 58 58 58 58 58 58 58 58 58 58 58 7 7 7 7 7 7 8 0
0 136 7 7 7 7 7 7 7 7 7 7 58 58 58 58 58 58 58 58 58 58 58 58 58 58 58 58 58 58 58 58 58 58 58 58 58 58 58 58 58 58 58 58 58 58 58 58 58 58 58 58 58 7 7 7 7 7 7 8 0
0 0 7 7 7 7 7 7 7 7 7 7 58 58 58 58 58 58 58 58 58 58 58 58 58 58 58 58 58 58 58 58 58 58 58 58 58 58 58 58 58 58 58 58 58 58 58 58 58 58 58 58 58 7 7 7 7 7 7 8 0
0 0 7 7 7 7 7 7 7 7 7 7 58 58 58 58 58 58 58 58 58 58 58 58 58 58 58 58 58 58 58 58 58 58 58 58 58 58 58 58 58 58 58 58 58 58 58 58 58 58 58 58 58 7 7 7 7 7 7 8 0
0 136 7 7 7 7 7 7 7 7 7 7 58 58 58 58 58 58 58 58 58 58 58 58 58 58 58 58 58 58 58 58 58 58 58 58 58 58 58 58 58 58 58 58 58 58 58 58 58 58 58 58 58 7 7 7 7 7 7 8 0
0 136 7 7 7 7 7 7 7 7 7 7 58 58 58 58 58 58 58 58 58 58 58 58 58 58 58 58 58 58 58 58 58 58 58 58 58 58 58 58 58 58 58 58 58 58 58 58 58 58 58 58 58 7 7 7 7 7 7 8 0
0 136 7 7 7 7 7 7 7 7 7 7 58 58 58 58 58 58 58 58 58 58 58 58 58 58 58 58 58 58 58 58 58 58 58 58 58 58 58 58 58 58 58 58 58 58 58 58 58 58 58 58 58 7 7 7 7 7 7 8 0
0 136 7 7 7 7 7 7 7 7 7 7 58 58 58 58 58 58 58 58 58 58 58 58 58 58 58 58 58 58 58 58 58 58 58 58 58 58 58 58 58 58 58 58 58 58 58 58 58 58 58 58 58 7 7 7 7 7 7 8 0
0 0 7 7 7 7 7 7 7 7 7 7 58 58 58 58 58 58 58 58 58 58 58 58 58 58 58 58 58 58 58 58 58 58 58 58 58 58 58 58 58 58 58 58 58 58 58 58 58 58 58 58 58 7 7 7 7 7 7 8 0
0 136 7 7 7 7 7 7 7 7 7 7 58 58 58 58 58 58 58 58 58 58 58 58 58 58 58 58 58 58 58 58 58 58 58 58 58 58 58 58 58 58 58 58 58 58 58 58 58 58 58 58 58 7 7 7 7 7 7 8 0
0 0 7 7 7 7 7 7 7 7 7 7 58 58 58 58 58 58 58 58 58 58 58 58 58 58 58 58 58 58 58 58 58 58 58 58 58 58 58 58 58 58 58 58 58 58 58 58 58 58 58 58 58 7 7 7 7 7 7 8 0
0 136 7 7 7 7 7 7 7 7 7 7 58 58 58 58 58 58 58 58 58 58 58 58 58 58 58 58 58 58 58 58 58 58 58 58 58 58 58 58 58 58 58 58 58 58 58 58 58 58 58 58 58 7 7 7 7 7 7 8 0
0 136 7 7 7 7 7 7 7 7 7 7 58 58 58 58 58 58 58 58 58 58 58 58 58 58 58 58 58 58 58 58 58 58 58 58 58 58 58 58 58 58 58 58 58 58 58 58 58 58 58 58 58 7 7 7 7 7 7 8 0
0 0 7 7 7 7 7 7 7 7 7 7 58 58 58 58 58 58 58 58 58 58 58 58 58 58 58 58 58 58 58 58 58 58 58 58 58 58 58 58 58 58 58 58 58 58 58 58 58 58 58 58 58 7 7 7 7 7 7 8 0
0 136 7 7 7 7 7 7 7 7 7 7 58 58 58 58 58 58 58 58 58 58 58 58 58 58 58 58 58 58 58 58 58 58 58 58 58 58 58 58 58 58 58 58 58 58 58 58 58 58 58 58 58 7 7 7 7 7 7 8 0
0 0 7 7 7 7 7 7 7 7 7 7 58 58 58 58 58 58 58 58 58 58 58 58 58 58 58 58 58 58 58 58 58 58 58 58 58 58 58 58 58 58 58 58 58 58 58 58 58 58 58 58 58 7 7 7 7 7 7 8 0
0 136 7 7 7 7 7 7 7 7 7 7 58 58 58 58 58 58 58 58 58 58 58 58 58 58 58 58 58 58 58 58 58 58 58 58 58 58 58 58 58 58 58 58 58 58 58 58 58 58 58 58 58 7 7 7 7 7 7 8 0
0 136 7 7 7 7 7 7 7 7 7 7 58 58 58 58 58 58 58 58 58 58 58 58 58 58 58 58 58 58 58 58 58 58 58 58 58 58 58 58 58 58 58 58 58 58 58 58 58 58 58 58 58 7 7 7 7 7 7 8 0
0 136 7 8 28 36 7 7 7 7 7 7 58 58 58 58 58 58 58 58 58 58 58 58 58 58 58 58 58 58 58 58 58 58 58 58 58 58 58 58 58 58 58 58 58 58 58 58 58 58 58 58 58 7 7 10 1 1 7 8 0
0 136 7 8 28 36 7 7 7 7 7 7 58 58 58 58 58 58 58 58 58 58 58 58 58 58 58 58 58 58 58 58 58 58 58 58 58 58 58 58 58 58 58 58 58 58 58 58 58 58 58 58 58 7 7 10 1 1 7 8 0
0 0 7 8 28 36 7 7 7 7 7 7 58 58 58 58 58 58 58 58 58 58 58 58 58 58 58 58 58 58 58 58 58 58 58 58 58 58 58 58 58 58 58 58 58 58 58 58 58 58 58 58 58 7 7 10 1 1 7 8 0
0 136 7 7 28 7 7 7 7 7 7 7 58 58 58 58 58 58 58 58 58 58 58 58 58 58 58 58 58 58 58 58 58 58 58 58 58 58 58 58 58 58 58 58 58 58 58 58 58 58 58 58 58 7 7 7 1 7 7 8 0
0 28 1 1 1 1 1 1 1 1 1 1 1 1 1 1 1 1 1 1 1 1 1 1 1 1 1 1 1 1 1 1 1 1 1 1 1 1 1 1 1 1 1 1 1 1 1 1 1 1 1 1 1 1 1 1 1 1 1 1 0
0 28 74 165 190 201 0 1 1 1 1 1 0 0 0 0 1 1 1 1 1 1 1 1 1 1 1 1 1 1 1 1 1 1 1 1 1 1 1 1 1 1 1 53 53 1 201 201 201 201 201 201 201 199 189 171 198 75 54 1 0
0 28 74 165 190 1 7 7 7 7 7 7 7 7 7 7 7 7 7 7 7 7 7 7 7 7 7 7 7 7 7 7 7 7 7 7 7 7 7 7 1 1 53 255 212 53 201 201 201 201 201 201 201 199 189 171 198 75 54 1 0
0 0 74 165 190 1 7 7 7 7 7 7 53 53 53 53 7 7 7 7 7 7 7 7 7 7 7 7 7 7 7 7 7 7 7 7 7 7 7 7 1 1 53 212 255 1 201 201 201 201 201 201 201 199 189 171 198 75 54 1 0
0 28 74 165 190 1 7 7 7 7 7 53 53 53 53 53 7 7 7 7 7 7 7 7 7 7 7 7 7 7 7 7 7 7 7 7 7 7 7 7 0 201 0 53 1 1 201 201 201 201 53 53 0 199 189 171 198 75 54 1 0
0 28 74 165 190 1 7 7 7 7 7 53 53 53 53 53 7 7 7 7 7 7 7 7 7 7 7 7 7 7 7 7 7 7 7 7 7 7 7 7 1 201 201 201 201 201 201 201 201 0 53 53 53 199 189 171 198 75 54 1 0
0 28 74 165 190 1 7 7 7 7 7 53 53 53 53 53 7 7 7 7 7 7 7 7 7 7 7 7 7 7 7 7 7 7 7 7 7 7 53 53 53 201 201 201 201 201 201 201 201 201 53 53 0 199 189 171 198 75 54 1 0
0 28 74 165 190 1 7 7 7 7 7 7 53 53 53 7 7 7 7 7 7 7 7 7 7 7 7 7 7 7 7 7 7 7 7 7 7 53 53 53 53 201 201 201 201 201 201 201 201 201 201 201 201 199 189 171 198 75 54 1 0
0 0 74 165 190 0 7 7 7 7 7 7 7 7 7 7 7 7 7 7 7 7 7 7 7 7 7 7 7 7 7 7 7 7 7 7 7 53 53 53 53 201 201 201 201 201 201 201 201 201 201 201 201 199 189 171 198 75 54 1 0
0 28 74 165 190 1 53 53 53 53 7 7 7 7 7 7 7 7 53 53 53 53 7 7 7 7 7 7 7 7 7 7 7 7 7 7 7 53 53 53 53 201 201 201 201 201 201 201 201 201 201 201 201 199 189 171 198 75 54 1 0
0 28 74 165 190 53 53 53 53 53 7 7 7 7 7 7 7 53 53 53 53 53 7 7 7 7 7 7 7 7 7 7 7 7 7 7 7 53 53 53 53 201 201 201 201 201 201 201 201 201 201 201 201 199 189 171 198 75 54 1 0
0 28 74 165 190 53 53 53 53 53 7 7 7 7 7 7 7 53 53 53 53 53 7 7 7 7 7 7 7 7 7 7 7 7 7 7 7 7 53 53 53 201 201 201 201 201 201 201 201 0 201 201 201 199 189 171 198 75 54 1 0
0 28 74 165 190 53 53 53 53 53 7 7 7 7 7 7 7 53 53 53 53 53 7 7 7 7 7 7 7 7 7 7 7 7 7 7 7 7 7 53 53 201 201 201 201 201 201 201 201 201 201 201 201 199 189 171 198 75 54 1 0
0 0 74 165 190 1 53 53 53 7 7 7 7 7 7 7 7 7 53 53 53 7 7 7 7 7 7 7 7 7 7 7 7 7 7 7 7 7 7 7 201 201 201 201 201 201 201 201 201 201 201 201 201 199 189 171 198 75 54 1 0
0 28 74 165 190 0 7 7 7 7 7 7 7 7 7 7 7 7 7 7 7 7 7 7 7 7 7 7 7 7 7 7 7 7 7 7 7 7 7 7 201 201 201 201 201 201 201 201 201 201 201 201 201 199 189 171 198 75 54 1 0
0 0 74 165 190 1 7 7 7 7 7 7 53 53 53 53 7 7 7 7 7 7 7 7 7 7 7 7 7 7 7 7 7 7 7 7 7 7 7 7 201 201 201 201 201 201 201 201 201 201 201 201 201 199 189 171 180 75 54 1 0
0 28 74 165 190 1 7 7 7 7 7 53 53 53 53 53 7 7 7 7 7 7 7 7 7 7 7 7 7 7 7 7 7 7 7 7 7 53 53 53 201 201 201 201 201 201 201 201 201 201 201 201 201 199 189 171 180 75 54 0 0
0 0 74 165 190 1 7 7 7 7 7 53 53 53 53 53 7 7 7 7 7 7 7 7 7 7 7 7 7 7 7 7 7 7 7 7 53 53 53 53 201 201 201 1 1 1 201 201 201 201 201 201 201 199 189 171 180 75 54 0 0
0 0 74 165 190 1 7 7 7 7 7 53 53 53 53 53 7 7 7 7 7 7 7 7 7 7 7 7 7 7 7 7 7 7 7 53 53 53 53 53 201 201 1 53 53 53 1 201 201 201 201 201 201 199 189 171 180 75 54 0 0
0 0 74 165 190 1 7 7 7 7 7 7 53 53 53 7 7 7 7 7 7 7 7 7 7 7 7 7 7 7 7 7 7 7 7 53 53 53 53 53 0 201 1 53 255 53 1 201 201 201 201 201 201 199 189 171 180 75 54 0 0
0 0 118 165 190 1 7 7 7 7 7 7 7 7 7 7 7 7 7 7 7 7 7 7 7 7 7 7 7 7 7 7 7 7 7 7 53 53 53 53 1 201 1 53 53 53 1 201 201 201 201 201 201 199 189 171 180 54 88 0 0
0 0 0 121 190 1 7 7 7 7 7 7 7 7 7 7 7 7 7 7 7 7 7 7 53 53 53 53 53 53 7 7 7 7 7 7 7 53 53 7 0 201 201 1 1 1 201 201 201 201 201 201 201 199 189 171 180 54 0 0 0
0 0 0 0 146 1 7 7 7 7 7 7 7 7 7 7 7 7 7 7 7 7 7 53 53 53 53 53 53 53 53 7 7 7 7 7 7 7 7 7 1 201 201 201 201 201 201 201 201 201 201 201 201 199 189 171 97 0 0 0 0
0 0 0 0 190 1 7 7 7 7 7 7 7 7 7 7 7 7 7 7 7 7 7 7 53 53 53 53 53 53 7 7 7 7 7 7 7 7 7 7 1 201 201 201 201 201 201 201 201 201 201 201 201 199 189 126 0 0 0 0 0
0 0 0 0 0 0 1 7 7 7 7 7 7 7 7 7 7 7 7 7 7 7 7 7 0 0 0 0 0 0 7 7 7 7 7 7 7 7 7 7 1 201 201 201 201 201 201 201 201 201 201 201 201 155 145 0 0 0 0 0 0
0 0 0 0 0 0 0 1 1 1 1 3 3 3 3 3 1 1 1 1 1 1 1 1 1 1 1 1 1 1 1 1 1 1 1 1 3 3 3 3 3 201 201 201 201 201 201 201 201 0 157 157 157 199 0 0 0 0 0 0 0
0 0 0 0 0 0 0 0 0 0 0 0 0 0 0 0 0 0 0 0 0 0 0 0 0 0 0 0 0 0 0 0 0 0 0 0 0 0 0 0 0 0 0 0 0 0 0 0 0 0 0 0 0 0 0 0 0 0 0 0 0
0 0 0 0 0 0 0 0 0 0 0 0 24 24 24 0 0 0 0 0 0 0 0 0 0 0 0 0 0 0 0 0 0 0 0 0 0 24 24 24 0 0 0 0 0 0 0 0 0 0 0 0 0 0 0 0 0 0 0 0 0
